X: 2
T: Wrong Foot Forward
R: slip jig
M: 9/8
L: 1/8
K: Bmin
B,2 DF Bcd|A2 ED CDE|DB,FD B,CD|CA,EC A,B,C|B,2 DF Bcd|A2 ED CDE|D2 B,C DCA,|1 A2 ED CDE:|2 A2 ED CB,A,||DEGB e2 d|GDBD dcA|B,CDE B2 A|DEAE Bce|EEGB e2 d|GGBD dcA|B,CDF BcA|A2 ED DEE:||


Tune 5411	Setting 5411

